X:1
T:15 Marins
C:Michel Tonnerre, fichier abc : Bernard Loffet
L:1/8
Q:380
M:3/4
K:C
 [e2A,2] A,2 [e2A,2] | [e2A,2] A,2 [e2A,2] | [e2A,2] [d2A,2] [c2A,2] | [d2G,2] G,2 G,2 | \
 [B2G,2] G,2 [B2G,2] | [c2F,2] F,2 [A2F,2] | [A2F,2] [G2F,2] [A2F,2] | [B2E,2] E,2 E,2 | \
 [e2E,2] [e2E,2] [e2E,2] | [e2A,2] A,2 [e2A,2] | [e2A,2] [d2A,2] [c2A,2] | [d2G,2] G,2 G,2 | \
 [B2G,2] [B2G,2] [B2G,2] | [c2F,2] F,2 [A2F,2] | [A2G,2] [G2G,2] [B2G,2] | [A2A,2] A,2 A,2 | \
 [E2A,2] [A2A,2] [c2A,2] | [e2A,2] A,2 [e2A,2] | [e2A,2] [d2A,2] [c2A,2] | [d2G,2] G,2 G,2 | \
 [B2G,2] G,2 [B2G,2] | [c2F,2] F,2 [A2F,2] | [A2F,2] [G2F,2] [A2F,2] | [B2E,2] E,2 E,2 | \
 [e2E,2] [e2E,2] [e2E,2] | [e2A,2] A,2 [e2A,2] | [e2A,2] [d2A,2] [c2A,2] | [d2G,2] G,2 G,2 | \
 [B2G,2] [B2G,2] [B2G,2] | [c2F,2] F,2 [A2F,2] | [A2G,2] [G2G,2] [B2G,2] | [A2A,2] A,2 A,2 | \
Z:Created with TablEdit http://www.tabledit.com/ by Bernard Loffet
